X:126
T: Richmudis von Adocht
N: Q0112A
O: Mitteleuropa, Deutschland (BRD) , Rheinland, Ldkr. Muellheim / Rhein,
R: Ballade, Schein - Tod, Grab, Auferstehen
M: 3/8
L: 1/16
K: G
D2 | G4G2 | A2A2d2 | c4_B2 | A4
_B2 | G2A2_B2 | A2G2F2 | G4A2 | D4
G2 | A4d2 | c2_B2A2 | G2A2G2 | =F4
D2 | G3A_Bc | d3G_BA | G2G2F2 | G4

@@@ Tune index: 1419
